Papirus-nordic/64x64/places/folder-nordic-projects.svg

<svg xmlns="http://www.w3.org/2000/svg" width="64" height="64"><rect width="50" height="32" x="7" y="24" rx="2.5" ry="2.5" opacity=".2"/><path d="M7 44.5C7 45.885 8.115 47 9.5 47h45c1.385 0 2.5-1.115 2.5-2.5v-27c0-1.385-1.115-2.5-2.5-2.5H29v-2.5c0-1.385-1.115-2.5-2.5-2.5h-17A2.495 2.495 0 0 0 7 12.5" fill="#6c9b9a"/><rect width="50" height="32" x="7" y="22" rx="2.5" ry="2.5" opacity=".2"/><rect width="44" height="20" x="10" y="18" rx="2.5" ry="2.5" fill="#e4e4e4"/><rect width="50" height="32" x="7" y="23" rx="2.5" ry="2.5" fill="#82abaa"/><path d="M9.5 10A2.495 2.495 0 0 0 7 12.5v1C7 12.115 8.115 11 9.5 11h17c1.385 0 2.5 1.115 2.5 2.5v-1c0-1.385-1.115-2.5-2.5-2.5zM29 15v1h25.5c1.39 0 2.5 1.115 2.5 2.5v-1c0-1.385-1.11-2.5-2.5-2.5z" opacity=".1" fill="#fff"/><path d="M35 28c-.437.163-.888.374-1.25.674-1.725 1.387-1.374 4.275.314 5.7.35.3.511.439.936.626v3c1.421.687 2 1 3.06 2.014.685.784.679.887.94 1.376V35c.425-.162.824-.338 1.186-.626C42 33 41.925 30.187 40.25 28.75A4.87 4.87 0 0 0 39 28v3c0 1 0 2-1 2h-2c-1 0-1-1-1-2zm-3.5 10.042C26 38.085 24 42.25 24 46h-2.688c-.312 0-.312.313-.312.313v2.375c0 .312.312.312.312.312h20.376S42 49 42 48.688v-2.375S42 46 41.688 46H39c0-3.75-2-8-7.5-7.958zm0 3.971C35 42 36 44.45 36 46h-9c0-1.5 1-3.975 4.5-3.987z" fill="#4e6766"/></svg>

<svg xmlns="http://www.w3.org/2000/svg" width="64" height="64" version="1.1">
 <rect style="opacity:0.2" width="50" height="32" x="7" y="24" rx="2.5" ry="2.5"/>
 <path style="fill:#6c9b9a" d="m7 44.5c0 1.385 1.115 2.5 2.5 2.5h45c1.385 0 2.5-1.115 2.5-2.5v-27c0-1.385-1.115-2.5-2.5-2.5h-25.5v-2.5c0-1.385-1.115-2.5-2.5-2.5h-17c-1.385 0-2.5 1.115-2.5 2.5"/>
 <rect style="opacity:0.2" width="50" height="32" x="7" y="22" rx="2.5" ry="2.5"/>
 <rect style="fill:#e4e4e4" width="44" height="20" x="10" y="18" rx="2.5" ry="2.5"/>
 <rect style="fill:#82abaa" width="50" height="32" x="7" y="23" rx="2.5" ry="2.5"/>
 <path style="opacity:0.1;fill:#ffffff" d="m9.5 10c-1.385 0-2.5 1.115-2.5 2.5v1c0-1.385 1.115-2.5 2.5-2.5h17c1.385 0 2.5 1.115 2.5 2.5v-1c0-1.385-1.115-2.5-2.5-2.5zm19.5 5v1h25.5c1.39 0 2.5 1.115 2.5 2.5v-1c0-1.385-1.11-2.5-2.5-2.5z"/>
 <path style="fill:#4e6766" d="M 35,28 C 34.563,28.163 34.112,28.374 33.75,28.674 32.025,30.061 32.376,32.949 34.064,34.374 34.414,34.674 34.575,34.813 35,35 V 38 C 36.421,38.687 37,39 38.06,40.014 38.745,40.798 38.739,40.901 39,41.39 V 35 C 39.425,34.838 39.824,34.662 40.186,34.374 42,33 41.925,30.187 40.25,28.75 39.888,28.45 39.438,28.175 39,28 V 31 C 39,32 39,33 38,33 H 36 C 35,33 35,32 35,31 Z M 31.5,38.042 C 26,38.085 24,42.25 24,46 H 21.312 C 21,46 21,46.313 21,46.313 V 48.688 C 21,49 21.312,49 21.312,49 H 41.688 C 41.688,49 42,49 42,48.688 V 46.313 C 42,46.313 42,46 41.688,46 H 39 C 39,42.25 37,38 31.5,38.042 Z M 31.5,42.013 C 35,42 36,44.45 36,46 H 27 C 27,44.5 28,42.025 31.5,42.013 Z"/>
</svg>
